X: 15002
T: Gentle Storm, The
R: hornpipe
M: 4/4
K: Cmajor
E>F|G>AG>F E>Gc>d|e>cg>e c2d>c|(3BBB d>B G>AB>G|(3ccc ec G>EF>^F|
G>AG>F E>Gc>d|e>cg>e c2d>c|(3BBB d>B G>AB>G|(3ccc B>d c2:|
K:Dmix
AG|F>DF>A c>AF>A|G>FG>B d>BG>B|e>cA>e d>BG>B|A>d^c>e d2 d>^d|
e>cG>c e>gf>e|(3ddd B>G D>^CD>^D|E>cA>G F>dc>A|(3GGG F>A G2:|

